assets/symbols/mulberry/ceiling.svg

<svg height="850.394" viewBox="0 0 850.394 850.394" width="850.394" xmlns="http://www.w3.org/2000/svg"><path d="m742.57 117.67v607.56l-15.14 3.45-113.67-131.76h-.14v-346.01h.8l118.51-137.36v-.01z" fill="#fff5b4"/><path d="m423.86 249.57h-190v.67l-117.85-136.6h10.21l298.32-.09h308.39l-118.51 137.36h-.8v-1.34z" fill="#fff"/><path d="m727.43 728.68 4.84 5.61-308.53.08h-308.39l2.85-3.3 115.66-134.06h379.76v-.09h.14z" fill="#f6cc4b"/><path d="m423.86 249.57h189.76v347.44h-42.02v-216.87h-112.16v216.87h-225.58v-347.44zm-43.44 229.06v-100.01h-112.16v100.01z" fill="#fff5b4"/><path d="m571.6 592.39v4.62h-112.16v-216.87h112.16z" fill="#9c5c25"/><path d="m233.86 250.24v346.77l-115.66 134.06-11.52-18.71v-606.72l19.54 8h-10.21z" fill="#fff5b4"/><g fill="none"><g stroke="#231f20"><path d="m613.62 596.92v.09h-379.76v-347.44h379.76v1.34z" stroke-width="21"/><path d="m613.76 596.92 113.67 131.76 4.84 5.61-308.53.08h-308.39l2.85-3.3 115.66-134.06m.66-346.01-.66-.76-117.85-136.6h10.21l298.32-.09h308.39l-118.51 137.36m-507.74-145.27v636.73m635.89-636.9v636.73" stroke-width="21"/><path d="m380.42 421.37v57.26h-112.16v-100.01h112.16z" stroke-width="14"/><path d="m459.44 592.39v-212.25h112.16v212.25" stroke-width="21"/><path d="m324.3 380.14v93.15m0-51.92h56.12" stroke-width="14"/><path d="m423.86 348.6v-187.36m-54.8 61.25 55-62.44 54.99 62.55" stroke-width="28"/><path d="m106.68 105.64 19.54 8 5.78 2.36m588-8 12.93 5.54 9.64 4.13 5.43 2.33m-644 588 2.68 4.36 11.52 18.71 1.8 2.93m584 0 23.43-5.32 15.14-3.45 5.43-1.23" stroke-width=".25"/></g><path d="m0 0h850.394v850.394h-850.394z"/></g></svg>

<svg xmlns="http://www.w3.org/2000/svg" width="850.394" height="850.394" viewBox="0 0 850.394 850.394" overflow="visible"><path fill="#fff5b4" d="M742.57 117.67v607.56l-15.14 3.45-113.67-131.76h-.14V250.91h.8l118.51-137.36v-.01z"/><path fill="#fff" d="M423.86 249.57h-190v.67l-117.85-136.6h10.21l298.32-.09h308.39L614.42 250.91h-.8v-1.34z"/><path fill="#f6cc4b" d="M727.43 728.68l4.84 5.61-308.53.08H115.35l2.85-3.3 115.66-134.06h379.76v-.09h.14z"/><path d="M423.86 249.57h189.76V597.01H571.6V380.14H459.44v216.87H233.86V249.57h190zm-43.44 229.06V378.62H268.26v100.01h112.16z" fill="#fff5b4"/><path fill="#9c5c25" d="M571.6 592.39v4.62H459.44V380.14H571.6z"/><path fill="#fff5b4" d="M233.86 250.24v346.77L118.2 731.07l-11.52-18.71V105.64l19.54 8h-10.21z"/><g fill="none" stroke="#231f20"><path stroke-width="21" d="M613.62 596.92v.09H233.86V249.57h379.76v1.34z"/><path stroke-width="21" d="M613.76 596.92l113.67 131.76 4.84 5.61-308.53.08H115.35l2.85-3.3 115.66-134.06M234.52 251l-.66-.76-117.85-136.6h10.21l298.32-.09h308.39L614.42 250.91M106.68 105.64v636.73M742.57 105.47V742.2"/><path stroke-width="14" d="M380.42 421.37v57.26H268.26V378.62h112.16z"/><path stroke-width="21" d="M459.44 592.39V380.14H571.6v212.25"/><path stroke-width="14" d="M324.3 380.14v93.15M324.3 421.37h56.12"/><path stroke-width="28" d="M423.86 348.6V161.24M369.06 222.49l55-62.44 54.99 62.55"/><path stroke-width=".25" d="M106.68 105.64l19.54 8L132 116M720 108l12.93 5.54 9.64 4.13L748 120M104 708l2.68 4.36 11.52 18.71L120 734M704 734l23.43-5.32 15.14-3.45L748 724"/></g><path fill="none" d="M0 0h850.394v850.394H0z"/></svg>
